X: 27202
T: Miss Patricia Meagher
R: reel
M: 4/4
K: Amajor
ec (3ccc ec fc|afec ecBA|(3EFG AB cA af|ec ef e2 ce|
f3 e f2 ef|afec ecBA|(3EFG AB cA af|1 ec Bc A2 af:|2 ec Bc (3AAA AF||
|:EFAB cB (3BBB|cAaf ec Bc|(3EFG AB cA af|ecBc (3AAA AF|
EFAB cB (3BBB|cAaf ec ef|a3 f (3efg af|1 ecBc (3AAA AF:|2 ecBc A4||

